X:1
T:Title
%%score { 1 | ( 2 3 ) }
L:1/8
Q:1/4=100
M:4/4
K:Ab
V:1 treble nm="Grand Piano"
V:2 bass 
V:3 bass 
V:1
 [Ec]2 [CA]>[CA] B2 E>E | A2 B>B [Ec]4 | F2 G>G A2 B>[Ec] | [EB]2 [=DF]>[DG] E4 | %4
w: M.~L.~McPhail * * * * *||||
 [Ec]2 [CA]>[CA] B2 E>E | [CA]2 [DB]>[Ec] [Fd]4 | [Ec]2 [FB]2 [CEA]2 [B,EG]2 | [DEB]4 [CEA]4 | %8
w: ||||
 B2 B>B B4 | [Ec]2 [Ec]>[Ec] [Ec]4 | [Ed]2 [Ec]>[Ec] [FB]2 [B,FA]>[B,FA] | %11
w: |||
 [B,EG]2 [A,=DF]>[A,DF] [G,E]4 | [Ec]2 [CA]>[CA] B>E E2 | %13
w: ||
[M:9/8] [CA]2 [DB]- [DB]/[Ec]<[Fe][Fd]/ [Fd]3 |[M:4/4] [Ec]2 [EB]>[EB] [Ee]2 [Fd]2 | %15
w: ||
 [Ec]2 [DB]>[CA] [CA]4 |] %16
w: |
V:2
 [A,,A,]2 [A,,E,]>[A,,E,] [E,G,D]2 [E,G,D]>[E,G,D] | [A,C]2 [E,G,E]>[E,G,E] [A,,A,]4 | %2
 [D,A,D]2 [E,D]>[E,B,D] [F,A,C]2 [E,G,E]>[A,,A,] | [B,,G,]2 [B,,A,]>[B,,A,] [E,G,]4 | %4
 [A,,A,]2 [A,,A,]>[A,,A,] [E,G,D]2 [E,G,D]>[E,G,D] | [A,,A,]2 [A,,A,]>[A,,A,] [D,A,]4 | %6
 A,2- [D,A,]2 E,2 E,2 | E,4 A,,4 | [E,G,E]2 [E,G,E]>[E,G,E] [E,G,E]4 | %9
 [A,,A,]2 [A,,A,]>[A,,A,] [A,,A,]4 | [B,,G,]2 [C,A,]>[C,A,] [D,A,]2 =D,>D, | E,2 B,,>B,, E,4 | %12
 [A,,A,]2 [A,,A,]>[A,,A,] [E,G,D]>[E,G,D] [E,G,]2 | %13
[M:9/8] [A,,A,]2 [A,,A,]- [A,,A,]/[A,,A,]<[D,A,][D,A,]/ [D,A,]3 | %14
[M:4/4] [E,A,]2 [D,G,]>[D,G,] A,2- [D,A,]2 | [E,A,]2 [E,G,]>[A,,E,] [A,,E,]4 |] %16
V:3
 x8 | x8 | x8 | x8 | x8 | x8 | A,,2 z2 z4 | x8 | x8 | x8 | x8 | x8 | x8 |[M:9/8] x9 | %14
[M:4/4] z4 C,2 z2 | x8 |] %16

